polaris-icons/icons/newicons/CalendarMajor.svg

<svg width="20" height="20" viewBox="0 0 20 20" fill="none" xmlns="http://www.w3.org/2000/svg">
<path fill-rule="evenodd" clip-rule="evenodd" d="M7.75 2.75C7.75 2.33579 7.41421 2 7 2C6.58579 2 6.25 2.33579 6.25 2.75V3.57029C5.81248 3.62324 5.41754 3.7202 5.04754 3.90873C4.34193 4.26825 3.76825 4.84193 3.40873 5.54754C3.18238 5.99175 3.08803 6.4719 3.04336 7.01853C2.99999 7.54944 2.99999 8.20505 3 9.01788V11.4821C2.99999 12.2949 2.99999 12.9506 3.04336 13.4815C3.08803 14.0281 3.18238 14.5082 3.40873 14.9525C3.76825 15.6581 4.34193 16.2317 5.04754 16.5913C5.49175 16.8176 5.97189 16.912 6.51853 16.9566C7.04945 17 7.70507 17 8.51792 17L12.6285 17C13.2031 17.0001 13.5947 17.0002 13.9361 16.9367C15.4605 16.653 16.653 15.4605 16.9367 13.9361C17.0002 13.5947 17.0001 13.2031 17 12.6285L17 9.01793C17 8.20507 17 7.54945 16.9566 7.01853C16.912 6.4719 16.8176 5.99175 16.5913 5.54754C16.2317 4.84193 15.6581 4.26825 14.9525 3.90873C14.5825 3.7202 14.1875 3.62324 13.75 3.57029V2.75C13.75 2.33579 13.4142 2 13 2C12.5858 2 12.25 2.33579 12.25 2.75V3.50164C12.011 3.49999 11.7554 3.5 11.4821 3.5H8.51789C8.24456 3.5 7.98901 3.49999 7.75 3.50164V2.75ZM5.72852 5.24524C5.92604 5.1446 6.1868 5.07546 6.64068 5.03838C7.10331 5.00058 7.69755 5 8.55 5H11.45C12.3025 5 12.8967 5.00058 13.3593 5.03838C13.8132 5.07546 14.074 5.1446 14.2715 5.24524C14.6948 5.46095 15.039 5.80516 15.2548 6.22852C15.3554 6.42604 15.4245 6.6868 15.4616 7.14068C15.4815 7.38442 15.4911 7.66469 15.4957 8H4.50427C4.50888 7.66469 4.51847 7.38442 4.53838 7.14068C4.57546 6.6868 4.6446 6.42604 4.74523 6.22852C4.96095 5.80516 5.30516 5.46095 5.72852 5.24524ZM4.5 9.5V11.45C4.5 12.3025 4.50058 12.8967 4.53838 13.3593C4.57546 13.8132 4.6446 14.074 4.74523 14.2715C4.96095 14.6948 5.30516 15.039 5.72852 15.2548C5.92604 15.3554 6.1868 15.4245 6.64068 15.4616C7.10331 15.4994 7.69754 15.5 8.55 15.5H12.5471C13.2339 15.5 13.4747 15.4968 13.6617 15.462C14.5763 15.2918 15.2918 14.5763 15.462 13.6617C15.4968 13.4747 15.5 13.2339 15.5 12.5471V9.5H4.5Z" fill="black"/>
</svg>

<svg viewBox="0 0 20 20" fill="none" xmlns="http://www.w3.org/2000/svg"><path fill-rule="evenodd" clip-rule="evenodd" d="M7.75 2.75a.75.75 0 0 0-1.5 0v.82c-.438.053-.832.15-1.202.339a3.75 3.75 0 0 0-1.64 1.639c-.226.444-.32.924-.365 1.47-.043.531-.043 1.187-.043 2v2.464c0 .813 0 1.469.043 2 .045.546.14 1.026.366 1.47a3.75 3.75 0 0 0 1.639 1.64c.444.226.924.32 1.47.365.531.043 1.187.043 2 .043h4.11c.575 0 .967 0 1.308-.063a3.75 3.75 0 0 0 3-3c.064-.342.064-.734.064-1.308v-3.611c0-.813 0-1.469-.043-2-.045-.546-.14-1.026-.366-1.47a3.75 3.75 0 0 0-1.639-1.64c-.37-.188-.764-.285-1.202-.338v-.82a.75.75 0 0 0-1.5 0v.752c-.239-.002-.495-.002-.768-.002h-2.964c-.273 0-.529 0-.768.002v-.752Zm-2.021 2.495c.197-.1.458-.17.912-.207.462-.037 1.057-.038 1.909-.038h2.9c.853 0 1.447 0 1.91.038.453.037.714.107.912.207.423.216.767.56.983.984.1.197.17.458.207.912.02.243.03.524.034.859h-10.992c.005-.335.014-.616.034-.86.037-.453.107-.714.207-.911a2.25 2.25 0 0 1 .984-.984Zm-1.229 4.255v1.95c0 .853 0 1.447.038 1.91.037.453.107.714.207.912.216.423.56.767.984.983.197.1.458.17.912.207.462.037 1.057.038 1.909.038h3.997c.687 0 .928-.003 1.115-.038a2.25 2.25 0 0 0 1.8-1.8c.035-.187.038-.428.038-1.115v-3.047h-11Z" fill="#000"/></svg>
